assets/2023/icons/folderMailers_dark.svg

<!-- Copyright 2000-2023 JetBrains s.r.o. and contributors. Use of this source code is governed by the Apache 2.0 license. -->
<svg width="16" height="16" viewBox="0 0 16 16" fill="none" xmlns="http://www.w3.org/2000/svg">
<path fill-rule="evenodd" clip-rule="evenodd" d="M14.6398 11H9.36023L12 12.8855L14.6398 11ZM9 11.9716L11.7094 13.9069C11.8832 14.031 12.1168 14.031 12.2906 13.9069L15 11.9716V15H9V11.9716ZM8 15V11C8 10.4477 8.44772 10 9 10H15C15.5523 10 16 10.4477 16 11V15C16 15.5523 15.5523 16 15 16H9C8.44772 16 8 15.5523 8 15Z" fill="#548AF7"/>
<path d="M1 3.86667C1 2.83574 1.73127 2 2.63333 2H6.1217C6.39413 2 6.65477 2.11115 6.84336 2.30775L8.46667 4L13 4C14.1046 4 15 4.89543 15 6V9H9C7.89543 9 7 9.89543 7 11V14H2.63333C1.73127 14 1 13.1643 1 12.1333V3.86667Z" fill="#43454A"/>
<path d="M2.63333 3L6.1217 3L8.04022 5H13C13.5523 5 14 5.44771 14 6V9H15V6C15 4.89543 14.1046 4 13 4L8.46667 4L6.84336 2.30775C6.65477 2.11115 6.39413 2 6.1217 2H2.63333C1.73127 2 1 2.83574 1 3.86667V12.1333C1 13.1643 1.73127 14 2.63333 14H7V13H2.63333C2.40481 13 2 12.7416 2 12.1333V3.86667C2 3.25841 2.40481 3 2.63333 3Z" fill="#CED0D6"/>
</svg>

<svg xmlns="http://www.w3.org/2000/svg" width="16" height="16" fill="none" viewBox="0 0 16 16"><path fill="#548AF7" fill-rule="evenodd" d="M14.64 11H9.36L12 12.886zM9 11.972l2.71 1.935a.5.5 0 0 0 .58 0L15 11.972V15H9zM8 15v-4a1 1 0 0 1 1-1h6a1 1 0 0 1 1 1v4a1 1 0 0 1-1 1H9a1 1 0 0 1-1-1" clip-rule="evenodd"/><path fill="#43454A" d="M1 3.867C1 2.836 1.731 2 2.633 2h3.489a1 1 0 0 1 .721.308L8.467 4H13a2 2 0 0 1 2 2v3H9a2 2 0 0 0-2 2v3H2.633C1.731 14 1 13.164 1 12.133z"/><path fill="#CED0D6" d="M2.633 3h3.489L8.04 5H13a1 1 0 0 1 1 1v3h1V6a2 2 0 0 0-2-2H8.467L6.843 2.308A1 1 0 0 0 6.122 2H2.633C1.731 2 1 2.836 1 3.867v8.266C1 13.164 1.731 14 2.633 14H7v-1H2.633C2.405 13 2 12.742 2 12.133V3.867C2 3.258 2.405 3 2.633 3"/></svg>
